X: 483
T: Come Along Jody
C:Tex Logan
B: jims roots
M:2/4
L:1/8
Q: 1/4=100
K:AMix
V:1 
|: "A"A,D=C^C EGA2 | {d^d}eaed {=c}cA3 | A,D=C^C EGA2 | !slide![e8a] |
A,D=C^C EGA2 | {d^d}eaed {=c}cA3 | cA2_B "E"(3ABA GB | [1 "A"A6z2 :| [2 "A"A2 AB cABc ||
"D"[A6d]cd | "A"{^d}eaed {=c}cA3 | "D"!slide![A6d]cd | "A"!slide![e8a] |
"D"[A6d]cd | "A"{^d}eaed {=c}cA3 | "B"B_B=Bc ^dBcd | "E"[e8^g] ||
"A"!slide!c'2 ac' age^d | =d^de^d =d=cA2 | EAG=c Adcd | e8|
d^de=d ^de=d^d | ege^d =d=cA2 | "E"[=c2e]AG E_ED=C | "A"[A,8E] |]
% abcbook-tune_id 6298c24530fe653cd48d595b


% abcbook-boost 0
% abcbook-tablature 
% abcbook-transpose 
% abcbook-lastupdated 1654178373779
% abcbook-soundfonts 
% abcbook-repeats 1


